X: 1
T: Portree Bay
C: John L. MacKenzie
S: Aonghas Grant tunebook (Grant, McOwen arr.)
S: and Andrea Beaton "The Tap Session", etc.
R: jig
B: Gow Collection
Z: arr. Terry Traub 2014-8-7
M: 6/8
L: 1/8
K: A
e |\
"A"Ace e2c | "D"fea fec | "A"Ace e2f | "A"ecA "E"B2c |\
"A"Ace e2c | "D"fea fec | "A"ABc "E"BfB | "A"cBA A2 || 
e |\
"A"a3 a2e | "D"fea fec | "A"a3 agf | "A"ecA "E"B2e |\
"A"a3 a2e | "D"fea "A"fec | "D"ABc "E"BfB | "A"cBA A2 || 
e |\
"A"Ace Ace | "A"ecA "E"B2c | "A"Ace Ace | "D"fea "E"fec |\
"A"Ace Ace | "A"ecA "E"B2c | "A"ABc "E"BfB | "A"cBA A2 || 
e |\
"A"a2a afe | "D"faf "E"fec | "A"a3 agf | "A"ecA "E"B2e |\
"A"aaa afe | "D"faf "A"fec | "D"ABc "E"BfB | "A"cBA A2 |] 
